X: 564
T: More luck to us
C: anon.
O: Ireland
B: Francis O'Neill: "The Dance Music of Ireland" (1907) no. 564
R: Reel
Z: Transcribed by Frank Nordberg - http://www.musicaviva.com
F: http://www.musicaviva.com/abc/tunes/ireland/oneill-1001/oneill-1001-056
4.abc
M: C|
L: 1/8
K: D
(FE)|D2(DF) A2AB|AFdB AFDF|Eeed e2(ef)|gefd BABc|d2DF A2AB|AFdB AFDF|G2BG
 F2AF|EFGAB2||
A2|dcde dAFA|dcdB A2FD|EFGA BABd|gefd B2(AB)|dcde dAFA|dcdB AFDF|G2(BG) F
2(AF)|EFGAB2|]
W:
W:
W: The time signatures are missing on page 104 in the book
W: (tunes nos. 560-566)
W:
W:
W: From Musica Viva - http://www.musicaviva.com
W: the Internet center for free sheet music downloads.


